brandFactory_export/3.Masa/Enchufe _3Masa.svg

<?xml version="1.0" encoding="UTF-8"?>
<svg width="24px" height="24px" viewBox="0 0 24 24" version="1.1" xmlns="http://www.w3.org/2000/svg" xmlns:xlink="http://www.w3.org/1999/xlink">
    <title>3.Masa/Enchufe _3Masa</title>
    <g id="Symbols" stroke="none" stroke-width="1" fill="none" fill-rule="evenodd">
        <g id="3.Masa/Enchufe-_3Masa" fill="#5CB615" fill-rule="nonzero">
            <path d="M11.6621849,22.1915966 L13.1243697,22.1915966 L13.1243697,17.7983193 L11.6621849,17.7983193 L11.6621849,22.1915966 Z M8.28739496,1.95630252 C8.28739496,1.70756303 8.50252101,1.50252101 8.75798319,1.50252101 C9.01680672,1.50252101 9.22857143,1.70756303 9.22857143,1.95630252 L9.22857143,6.59495798 L8.28739496,6.59495798 L8.28739496,1.95630252 L8.28739496,1.95630252 Z M15.3697479,1.95630252 C15.3697479,1.70756303 15.5848739,1.50252101 15.8403361,1.50252101 C16.0991597,1.50252101 16.3109244,1.70756303 16.3109244,1.95630252 L16.3109244,6.59831933 L15.3697479,6.59831933 L15.3697479,1.95630252 L15.3697479,1.95630252 Z M18.5865546,6.59831933 L17.8302521,6.59831933 L17.8302521,1.95294118 C17.8302521,0.894117647 16.9394958,0.0302521008 15.8403361,0.0302521008 C14.7445378,0.0302521008 13.8504202,0.890756303 13.8504202,1.95294118 L13.8504202,6.59495798 L10.7445378,6.59159664 L10.7445378,1.95294118 C10.7445378,0.894117647 9.85042017,0.0302521008 8.75462185,0.0302521008 C7.65882353,0.0302521008 6.76470588,0.890756303 6.76470588,1.95294118 L6.76470588,6.59159664 L6.19327731,6.59159664 C5.53781513,6.59159664 5.00336134,7.10588235 5.00336134,7.79159664 C5.00336134,11.1058824 6.47563025,12.8302521 7.80672269,13.7142857 L7.80672269,15.210084 C7.80672269,15.9596639 8.05882353,16.5680672 8.52605042,16.9647059 C8.91932773,17.3176471 9.46722689,17.502521 10.1394958,17.5394958 L10.1394958,22.5210084 C10.1394958,23.1495798 10.6672269,23.6571429 11.3159664,23.6571429 L13.4605042,23.6571429 C14.1092437,23.6571429 14.6369748,23.1495798 14.6369748,22.5210084 L14.6369748,17.5394958 C15.3159664,17.5058824 15.8672269,17.3210084 16.2672269,16.9647059 C16.7344538,16.5579832 16.9697479,15.9663866 16.9697479,15.2067227 L16.9697479,13.7042017 C18.3008403,12.8201681 19.7731092,11.0991597 19.7731092,7.82857143 L19.7731092,7.74453782 C19.7731092,7.11260504 19.2420168,6.59831933 18.5865546,6.59831933 L18.5865546,6.59831933 Z" id="Enchufe-_3Masa"></path>
        </g>
    </g>
</svg>

<svg width="24" height="24" viewBox="0 0 24 24" xmlns="http://www.w3.org/2000/svg"><path d="M11.662 22.192h1.462v-4.394h-1.462v4.394zM8.287 1.956c0-.248.216-.453.471-.453.259 0 .47.205.47.453v4.639h-.94V1.956zm7.083 0c0-.248.215-.453.47-.453.26 0 .47.205.47.453v4.642h-.94V1.956zm3.217 4.642h-.757V1.953C17.83.894 16.94.03 15.84.03c-1.095 0-1.99.86-1.99 1.923v4.642l-3.105-.003v-4.64C10.745.895 9.85.03 8.755.03c-1.096 0-1.99.86-1.99 1.923v4.639h-.572c-.655 0-1.19.514-1.19 1.2 0 3.314 1.473 5.038 2.804 5.922v1.496c0 .75.252 1.358.72 1.755.392.353.94.538 1.612.574v4.982c0 .629.528 1.136 1.177 1.136h2.145c.648 0 1.176-.507 1.176-1.136v-4.982c.679-.033 1.23-.218 1.63-.574.467-.407.703-.999.703-1.758v-1.503c1.33-.884 2.803-2.605 2.803-5.875v-.084c0-.632-.531-1.147-1.186-1.147z" fill="#5CB615" fill-rule="nonzero"/></svg>
